svg/fluentui-system-icons/ic_fluent_arrow_fit_20_filled.svg

<svg width="20" height="20" viewBox="0 0 20 20" fill="none" xmlns="http://www.w3.org/2000/svg">
<path d="M5.79139 6.72073C6.0837 7.01421 6.08275 7.48908 5.78927 7.78139L4.56578 9H8.25C8.66421 9 9 9.33579 9 9.75C9 10.1642 8.66421 10.5 8.25 10.5H4.56066L5.78033 11.7197C6.07322 12.0126 6.07322 12.4874 5.78033 12.7803C5.48744 13.0732 5.01256 13.0732 4.71967 12.7803L2.21967 10.2803C2.07883 10.1395 1.9998 9.94842 2 9.74925C2.0002 9.55008 2.07961 9.35917 2.22073 9.21861L4.73073 6.71861C5.02421 6.4263 5.49908 6.42725 5.79139 6.72073ZM14.2197 6.71967C14.5126 6.42678 14.9874 6.42678 15.2803 6.71967L17.7803 9.21967C18.0732 9.51256 18.0732 9.98744 17.7803 10.2803L15.2803 12.7803C14.9874 13.0732 14.5126 13.0732 14.2197 12.7803C13.9268 12.4874 13.9268 12.0126 14.2197 11.7197L15.4393 10.5H11.75C11.3358 10.5 11 10.1642 11 9.75C11 9.33579 11.3358 9 11.75 9H15.4393L14.2197 7.78033C13.9268 7.48744 13.9268 7.01256 14.2197 6.71967Z" fill="#212121"/>
</svg>

<svg xmlns="http://www.w3.org/2000/svg" width="20" height="20"><path d="M5.791 6.72a.75.75 0 0 1-.002 1.061L4.566 9H8.25a.75.75 0 0 1 0 1.5H4.56l1.22 1.22a.75.75 0 1 1-1.06 1.06l-2.5-2.5a.75.75 0 0 1 0-1.061l2.51-2.5a.75.75 0 0 1 1.061.002Zm8.429 0a.75.75 0 0 1 1.06 0l2.5 2.5a.75.75 0 0 1 0 1.06l-2.5 2.5a.75.75 0 1 1-1.06-1.06l1.22-1.22h-3.69a.75.75 0 0 1 0-1.5h3.69l-1.22-1.22a.75.75 0 0 1 0-1.06Z"/></svg>
